dist/svg/help.svg

<!-- Generated by Trend Micro Style Portal -->
<svg version="1.1" xmlns="http://www.w3.org/2000/svg" width="16" height="16" viewBox="0 0 16 16">
  <title>help</title>
  <path fill="rgb(34,34,34)" d="M8 0c-4.418 0-8 3.582-8 8s3.582 8 8 8c4.418 0 8-3.582 8-8v0c0-4.418-3.582-8-8-8v0zM9 13h-2v-2h2zM10.6 6.72c-0.51 0.47-1.6 1.36-1.6 2.28v1h-2v-1c0-0.84 1.050-1.78 1.050-1.78 0.445-0.371 0.846-0.75 1.223-1.153l0.007-0.007c0.137-0.17 0.22-0.388 0.22-0.626 0-0.005-0-0.010-0-0.015l0 0.001c0-0.32 0-1.16-1.42-1.16s-1.46 0.81-1.56 1.3h-1.52c0.015-0.722 0.331-1.368 0.828-1.818l0.002-0.002c0.547-0.462 1.26-0.743 2.039-0.743 0.046 0 0.092 0.001 0.138 0.003l-0.007-0c0.053-0.003 0.116-0.005 0.179-0.005 0.793 0 1.52 0.281 2.087 0.749l-0.006-0.004c0.512 0.436 0.835 1.080 0.84 1.799v0.001c-0.001 0.463-0.192 0.881-0.5 1.18l-0 0z"></path>
</svg>

<svg width="16" height="16" viewBox="0 0 16 16" fill="rgb(34, 34, 34)" xmlns="http://www.w3.org/2000/svg"><title>help</title><path d="M8 0C3.582 0 0 3.582 0 8C0 12.418 3.582 16 8 16C12.418 16 16 12.418 16 8C16 3.582 12.418 0 8 0ZM9 13H7V11H9V13ZM10.6 6.72C10.09 7.19 9 8.08 9 9V10H7V9C7 8.16 8.05 7.22 8.05 7.22C8.495 6.849 8.896 6.47 9.273 6.067L9.28 6.06C9.417 5.89 9.5 5.672 9.5 5.434C9.5 5.429 9.5 5.424 9.5 5.419C9.5 5.099 9.5 4.26 8.08 4.26C6.66 4.26 6.62 5.07 6.52 5.56H5C5.015 4.838 5.331 4.192 5.828 3.742L5.83 3.74C6.377 3.278 7.09 2.997 7.869 2.997C7.915 2.997 7.961 2.998 8.007 3H8C8.053 2.997 8.116 2.995 8.179 2.995C8.972 2.995 9.699 3.276 10.266 3.744L10.26 3.74C10.772 4.176 11.095 4.82 11.1 5.539C11.099 6.002 10.908 6.421 10.6 6.72Z" fill="rgb(34, 34, 34)" fill-opacity="1.00"/></svg>
